public/images/file-maker/grey-hash.svg

<svg width="703" height="519" viewBox="0 0 703 519" fill="none" xmlns="http://www.w3.org/2000/svg">
<path d="M642.03 335.802L554.25 343.698L562.35 246.419L633.4 240.027C671.02 236.643 697.66 204.862 694.28 167.385C690.9 129.908 659.02 103.39 621.41 106.774L571.25 111.286L580.1 22.3349C585.45 -11.7301 557.37 -42.7872 519 -47.7312C484.82 -53.0522 453.63 -25.0591 448.65 13.1709L437.5 123.318L307.92 134.974L316.77 46.0229C322.13 11.9579 294.059 -19.0992 255.689 -24.0432C221.499 -29.3642 190.309 -1.37113 185.329 36.8578L174.17 147.006L61.3295 157.158C23.7095 160.542 -2.92051 192.323 0.449493 229.8C3.82949 267.278 44.0695 293.043 81.6895 289.659L169.46 281.763L161.37 379.04L90.3096 385.43C52.6896 388.82 26.0595 420.6 29.4395 458.08C32.8095 495.55 64.6996 522.07 102.31 518.69L152.46 514.17L143.63 603.13C138.27 637.19 166.34 668.25 204.71 673.19C230.53 679.26 270.449 654.68 275.069 612.29L286.21 502.14L415.79 490.49L406.949 579.44C401.579 613.5 429.66 644.56 468.03 649.5C493.86 655.58 533.78 631 538.38 588.6L549.54 478.46L662.39 468.3C700.01 464.92 726.63 433.14 723.26 395.66C707.35 359.312 675.47 332.795 642.03 335.802ZM420.5 355.73L290.939 367.386L299.03 270.107L428.6 258.451L420.5 355.73Z" fill="url(#paint0_linear)" fill-opacity="0.5"/>
<path d="M552.26 343.533L552.06 345.904L554.43 345.69L642.21 337.794C674.35 334.903 705.52 360.376 721.3 396.16C724.39 432.39 698.62 463.04 662.21 466.31L549.36 476.46L547.71 476.61L547.55 478.25L536.4 588.39H536.39C534.15 608.99 523.35 625.26 509.94 635.65C496.47 646.08 480.64 650.42 468.49 647.56L468.39 647.53L468.29 647.52C430.73 642.68 403.78 612.41 408.92 579.75L408.93 579.69L408.94 579.64L417.78 490.68L418.02 488.28L415.61 488.5L286.04 500.15L284.39 500.3L284.22 501.94L273.08 612.07C273.08 612.08 273.08 612.08 273.08 612.08C270.84 632.68 260.02 648.95 246.62 659.34C233.16 669.77 217.33 674.1 205.17 671.25L205.07 671.22L204.96 671.21C167.4 666.37 140.46 636.1 145.6 603.44L145.61 603.38L145.62 603.32L154.45 514.37L154.69 511.97L152.29 512.18L102.14 516.69C65.6097 519.98 34.6997 494.27 31.4297 457.9C28.1597 421.53 53.9696 390.71 90.4896 387.43L161.55 381.03L163.22 380.88L163.36 379.21L171.45 281.929L171.65 279.558L169.28 279.771L81.5097 287.667C63.1997 289.314 44.1997 283.861 29.3797 273.418C14.5697 262.981 4.06961 247.66 2.44961 229.621C-0.830392 193.25 24.9897 162.436 61.5097 159.15L174.35 148.998L176.01 148.85L176.17 147.207L187.31 37.0889C192.2 -0.309002 222.59 -27.1701 255.38 -22.0671L255.41 -22.063L255.43 -22.0601C293 -17.2191 319.93 13.047 314.8 45.713L314.79 45.7689L314.78 45.825L305.93 134.776L305.7 137.183L308.1 136.966L437.68 125.31L439.32 125.162L439.49 123.52L450.64 13.4009C455.52 -23.9971 485.91 -50.8581 518.69 -45.7551L518.72 -45.751L518.75 -45.748C556.31 -40.907 583.26 -10.641 578.12 22.025L578.1 22.0809V22.1379L569.26 111.089L569.02 113.495L571.43 113.278L621.59 108.766C658.11 105.481 689.01 131.193 692.28 167.564C695.56 203.935 669.74 234.75 633.22 238.035L562.17 244.427L560.5 244.578L560.36 246.253L552.26 343.533ZM420.68 357.722L422.36 357.572L422.5 355.896L430.6 258.617L430.79 256.246L428.42 256.459L298.85 268.115L297.18 268.266L297.04 269.941L288.94 367.22L288.74 369.591L291.12 369.378L420.68 357.722Z" stroke="#EBECEE" stroke-opacity="0.3" stroke-width="4"/>
<defs>
<linearGradient id="paint0_linear" x1="330.78" y1="-32.4162" x2="392.89" y2="658.086" gradientUnits="userSpaceOnUse">
<stop stop-color="#F8F8F8"/>
<stop offset="1" stop-color="#E9E7E7"/>
</linearGradient>
</defs>
</svg>

<svg xmlns="http://www.w3.org/2000/svg" width="703" height="519" fill="none" xmlns:v="https://vecta.io/nano"><path d="M642.03 335.802l-87.78 7.896 8.1-97.279 71.05-6.392c37.62-3.384 64.26-35.165 60.88-72.642s-35.26-63.995-72.87-60.611l-50.16 4.512 8.85-88.951c5.35-34.065-22.73-65.122-61.1-70.066-34.18-5.321-65.37 22.672-70.35 60.902L437.5 123.318l-129.58 11.656 8.85-88.951c5.36-34.065-22.711-65.122-61.081-70.066-34.19-5.321-65.38 22.672-70.36 60.901L174.17 147.006 61.33 157.158C23.71 160.542-2.921 192.323.449 229.8c3.38 37.478 43.62 63.243 81.24 59.859l87.771-7.896-8.09 97.277-71.06 6.39c-37.62 3.39-64.25 35.17-60.87 72.65 3.37 37.47 35.26 63.99 72.871 60.61l50.15-4.52-8.83 88.96c-5.36 34.06 22.71 65.12 61.08 70.06 25.82 6.07 65.739-18.51 70.359-60.9l11.141-110.15 129.58-11.65-8.841 88.95c-5.37 34.06 22.711 65.12 61.081 70.06 25.83 6.08 65.75-18.5 70.35-60.9l11.16-110.14 112.85-10.16c37.62-3.38 64.24-35.16 60.87-72.64-15.91-36.348-47.79-62.865-81.23-59.858zM420.5 355.73l-129.561 11.656 8.091-97.279 129.57-11.656-8.1 97.279z" fill="url(#A)" fill-opacity=".5"/><path d="M552.26 343.533l-.2 2.371 2.37-.214 87.78-7.896c32.14-2.891 63.31 22.582 79.09 58.366 3.09 36.23-22.68 66.88-59.09 70.15l-112.85 10.15-1.65.15-.16 1.64-11.15 110.14h-.01c-2.24 20.6-13.04 36.87-26.45 47.26-13.47 10.43-29.3 14.77-41.45 11.91l-.1-.03-.1-.01c-37.56-4.84-64.51-35.11-59.37-67.77l.01-.06.01-.05 8.84-88.96.24-2.4-2.41.22-129.57 11.65-1.65.15-.17 1.64-11.14 110.13c-2.24 20.61-13.06 36.88-26.46 47.27-13.46 10.43-29.29 14.76-41.45 11.91l-.1-.03-.11-.01c-37.56-4.84-64.5-35.11-59.36-67.77l.01-.06.01-.06 8.83-88.95.24-2.4-2.4.21-50.15 4.51c-36.53 3.29-67.44-22.42-70.71-58.79s22.54-67.19 59.06-70.47l71.06-6.4 1.67-.15.14-1.67 8.09-97.281.2-2.371-2.37.213-87.77 7.896c-18.31 1.647-37.31-3.806-52.13-14.249-14.81-10.437-25.31-25.758-26.93-43.797-3.28-36.371 22.54-67.185 59.06-70.471l112.84-10.152 1.66-.148.16-1.643 11.14-110.118c4.89-37.398 35.28-64.259 68.07-59.156l.03.004.02.003c37.57 4.841 64.5 35.107 59.37 67.773l-.01.056-.01.056-8.85 88.951-.23 2.407 2.4-.217 129.58-11.656 1.64-.148.17-1.642 11.15-110.119c4.88-37.398 35.27-64.259 68.05-59.156l.03.004.03.003c37.56 4.841 64.51 35.107 59.37 67.773l-.02.056v.057l-8.84 88.951-.24 2.406 2.41-.217 50.16-4.512c36.52-3.285 67.42 22.427 70.69 58.798 3.28 36.371-22.54 67.186-59.06 70.471l-71.05 6.392-1.67.151-.14 1.675-8.1 97.28zm-131.58 14.189l1.68-.15.14-1.676 8.1-97.279.19-2.371-2.37.213-129.57 11.656-1.67.151-.14 1.675-8.1 97.279-.2 2.371 2.38-.213 129.56-11.656z" stroke="#ebecee" stroke-opacity=".3" stroke-width="4"/><defs><linearGradient id="A" x1="330.78" y1="-32.416" x2="392.89" y2="658.086" gradientUnits="userSpaceOnUse"><stop stop-color="#f8f8f8"/><stop offset="1" stop-color="#e9e7e7"/></linearGradient></defs></svg>
